!!!!SEGMENT: pl-kk--kk-i-288--004_anonim-factus-est-repente.krn
!!!id: 16xx:1096
!!!COM: Anonim
!!!OTL: Factus est repente
!!!PDT:
!!!SMS-siglum: PL-Kk
!!!SMS-shelfmark: Kk.I.288
!!!NIFC-rismID: 1001147287
!!!URL-scan: http://repozytorium.nifc.pl/skany/pl-kk-nut--i-288
!!!ONB-nifc: UWAGA: utwory w zbiorze: 1. Spiritus Domini, 2. Alleluia ave virgo Maria, 3. Venit caeli nuntius, 4. Factus est repente
!!!SMS-variant:
!!!SMS-altvar:
**kern	**text	**kern	**text	**kern	**text	**kern	**text	**kern	**text
*part5	*part5	*part4	*part4	*part3	*part3	*part2	*part2	*part1	*part1
*staff5	*staff5	*staff4	*staff4	*staff3	*staff3	*staff2	*staff2	*staff1	*staff1
*I"[Basso]	*	*I"[Tenore 2]	*	*I"[Tenore 1]	*	*I"[Alto]	*	*I"[Canto]	*
*I'B	*	*I'T 2	*	*I'T 1	*	*I'A	*	*I'S	*
*clefF3	*	*clefC3	*	*clefC3	*	*clefC3	*	*clefG2	*
*k[]	*	*k[]	*	*k[]	*	*k[]	*	*k[]	*
*M2/1	*	*M2/1	*	*M2/1	*	*M2/1	*	*M2/1	*
*met(c|)	*	*met(C|)	*	*met(C)	*	*met(C)	*	*met(C)	*
=1-	=1-	=1-	=1-	=1-	=1-	=1-	=1-	=1-	=1-
!	!	!LO:TX:t=Commu\nnio\naltus.	!	!LO:TX:t=P:problem:4\right:global	!	!LO:TX:t=P:problem:4\right:global	!	!LO:TX:t=P:problem:4\right:global	!
!	!	!LO:TX:t=P:problem:altus. adnotacja lub nazwa głosu	!	!	!	!	!	!	!
!LO:TX:t=P:problem:przed kluczem inicjał F	!	!LO:TX:t=P:problem:przed kluczem inicjał F	!	!LO:TX:t=P:problem:przed kluczem inicjał F	!	!LO:TX:t=P:problem:przed kluczem inicjał F	!	!LO:TX:t=P:problem:przed kluczem inicjał F	!
!LO:TX:a:t=Communio	!	!	!	!LO:TX:a:t=Communio\nSequit(ur)	!	!LO:TX:a:t=Communio\nSequit(ur)	!	!LO:TX:a:t=Communio.\nSequit(ur)	!
00r	.	1G	Fac-	0rd	.	1.d	Fac-	1rb	.
*	*	*lig	*	*	*	*	*	*	*
.	.	1G	-tus	.	.	.	.	1g	Fac-
*	*	*	*	*	*	*2\right	*	*	*
.	.	.	.	.	.	2d\	-tus	.	.
=2-	=2-	=2-	=2-	=2-	=2-	=2-	=2-	=2-	=2-
!	!	!LO:TX:t=P:problem:kreska pseudotaktowa	!	!	!	!	!	!	!
*	*	*	*	*	*	*	*	*lig	*
.	.	1d	.	0G	Fac-	2B/	eſt	1g	-tus
.	.	.	.	.	.	2G/	re-	.	.
*	*	*Xlig	*	*	*	*	*	*	*
.	.	1d	est	.	.	2.B/	-pen-	1dd	.
.	.	.	.	.	.	4A/	.	.	.
*	*	*	*	*	*	*	*	*Xlig	*
=3-	=3-	=3-	=3-	=3-	=3-	=3-	=3-	=3-	=3-
*	*	*	*	*lig	*	*	*	*	*
0rG	.	1d	re-	1G	-tus	4B/	.	0dd	eſt
.	.	.	.	.	.	4c/	.	.	.
.	.	.	.	.	.	4d\	.	.	.
.	.	.	.	.	.	4e\	.	.	.
.	.	1d	-pen-	1d	.	4f\	.	.	.
.	.	.	.	.	.	4g\	.	.	.
.	.	.	.	.	.	4a\	.	.	.
.	.	.	.	.	.	4f\	.	.	.
*	*	*	*	*Xlig	*	*	*	*	*
=4-	=4-	=4-	=4-	=4-	=4-	=4-	=4-	=4-	=4-
*	*	*	*	*2\right	*	*	*	*	*
1rF	.	1G,<	-te	2d\	eſt	2g\	.	2r	.
*	*	*	*	*	*	*	*	*2\right	*
.	.	.	.	2d\	re-	2b\	.	2dd\	re-
1D	Fac-	1d	de	1.f	-pen-	00a	-te	2dd\	-pen-
.	.	.	.	.	.	.	.	2dd\	-te
=5-	=5-	=5-	=5-	=5-	=5-	=5-	=5-	=5-	=5-
*lig	*	*	*	*	*	*	*	*	*
1D	-tus	1d	cae-	.	.	.	.	1ff	de
.	.	.	.	2d\	-te	.	.	.	.
!	!	!LO:TX:t=P:problem:kreska pseudotaktowa	!	!	!	!	!	!	!
1A	.	1c	-lo	2.e\	de-	.	.	2ee\	Cae-
.	.	.	.	.	.	.	.	1a/	-lo
.	.	.	.	4d\	.	.	.	.	.
*Xlig	*	*	*	*	*	*	*	*	*
=6-	=6-	=6-	=6-	=6-	=6-	=6-	=6-	=6-	=6-
*	*	*lig	*	*	*	*	*	*	*
!	!	!LO:LB:g=original	!	!	!	!	!	!	!
2A\	.	1f	So-	2c/	.	.	.	.	.
2F\	re-	.	.	2A/	.	.	.	1dd	ſo-
2G\	-pen-	1e	.	2B/	-Cae-	2re	.	.	.
2A\	-te	.	.	2c/	-lo	2a\	de	2cc\	.
*	*	*Xlig	*	*	*	*	*	*	*
=7-	=7-	=7-	=7-	=7-	=7-	=7-	=7-	=7-	=7-
*	*	*lig	*	*	*	*	*	*	*
1D	de	1f	.	1A	.	2a\	Cae-	0.dd	-nus
.	.	.	.	.	.	2f\	-lo	.	.
1.G	cae-	1d	.	2.B/	ſo-	2.g\	so-	.	.
.	.	.	.	4c/	.	4a\	.	.	.
*	*	*Xlig	*	*	*	*	*	*	*
=8-	=8-	=8-	=8-	=8-	=8-	=8-	=8-	=8-	=8-
!	!	!LO:TX:t=P:problem:kreska pseudotaktowa	!	!	!	!	!	!	!
.	.	1d,<	-n(us)	1d	.	2b-X\	.	.	.
2G\	-lo	.	.	.	.	2.g\	.	.	.
*lig	*	*	*	*	*	*	*	*	*
1B	So-	1d	ad-	1G	-nus	.	.	2r	.
.	.	.	.	.	.	4f\	.	.	.
.	.	.	.	.	.	2d\	.	2dd\	ad-
=9-	=9-	=9-	=9-	=9-	=9-	=9-	=9-	=9-	=9-
!	!	!	!	!	!	!	!	!LO:SIC:v:l:s=-ve-	!
1A	.	1c	-ve-	0rc	.	0g	-nus	2ee\	-ue-
.	.	.	.	.	.	.	.	2ee\	-ni-
*Xlig	*	*lig	*	*	*	*	*	*	*
2D/	-n(us)	1d	-ni-	.	.	.	.	2ff\	-en-
2F/	ad-	.	.	.	.	.	.	1dd\	-tis
=10-	=10-	=10-	=10-	=10-	=10-	=10-	=10-	=10-	=10-
!	!	!	!	!	!	!LO:PB:g=original	!	!	!
2G\	-ve-	1e	.	2rA	.	2re	.	.	.
2A\	-ni-	.	.	2A/	ad-	2a\	ad-	2cc\	Spi-
*lig	*	*Xlig	*	*	*	*	*	*	*
!	!	!	!	!LO:SIC:v:l:s=-ve-	!	!	!	!	!
1E	-en-	1e	-en-	2B/	-ue-	2a\	-ve-	1b	-ri-
.	.	.	.	2B/	-ni-	2g\	.	.	.
=11-	=11-	=11-	=11-	=11-	=11-	=11-	=11-	=11-	=11-
*	*	*lig	*	*lig	*	*	*	*	*
1A	.	1e	-tis	1c	-en-	2a\	.	0a	-tus
.	.	.	.	.	.	2e\	-ni-	.	.
*Xlig	*	*	*	*	*	*	*	*	*
!	!	!LO:TX:t=P:problem:kreska pseudotaktowa	!	!	!	!	!	!	!
1F	-tis	1d,<	.	1A	.	1f	-en-	.	.
*	*	*Xlig	*	*Xlig	*	*	*	*	*
=12-	=12-	=12-	=12-	=12-	=12-	=12-	=12-	=12-	=12-
*	*	*lig	*	*	*	*	*	*	*
!	!	!	!	!LO:LB:g=original	!	!	!	!LO:LB:g=original	!
2rD	.	1c	Spi-	2A/	-tis	1e	-tis	2r	.
2.A\	Spi-	.	.	2.c/	ſpi-	.	.	2.ee\	Spi-
.	.	1e	.	.	.	2.a\	Spi-	.	.
4A\	-ri-	.	.	4c/	-ri-	.	.	4ee\	-ri-
2A\	-tus	.	.	2c/	-tus	.	.	2ee\	-tus
.	.	.	.	.	.	4a\	-ri-	.	.
*	*	*Xlig	*	*	*	*	*	*	*
=13-	=13-	=13-	=13-	=13-	=13-	=13-	=13-	=13-	=13-
2F/	.	1d	-ri-	2A/	ve-	2a\	-tus	1.ff	ve-
2D/	Ve-	.	.	2.A/	-he-	1a	ve-	.	.
!	!	!LO:TX:t=P:problem:kreska pseudotaktowa	!	!	!	!	!	!	!
1F	-he-	1c,<	-t(us)	.	.	.	.	.	.
.	.	.	.	4B/	.	.	.	.	.
.	.	.	.	4c\	.	2f\	.	2ff\	-he-
.	.	.	.	4d\	.	.	.	.	.
=14-	=14-	=14-	=14-	=14-	=14-	=14-	=14-	=14-	=14-
2C/	-men-	1c	Ve-	2.e\	.	2g\	.	1ee	-men-
2.c\	-tis	.	.	.	.	1e	.	.	.
.	.	.	.	4d\	.	.	.	.	.
*	*	*lig	*	*	*	*	*	*	*
.	.	1A	-he-	2.c/	.	.	.	1ee	-tis
4B\	.	.	.	.	.	.	.	.	.
4A\	.	.	.	.	.	2.c\	.	.	.
4G\	ve-	.	.	4B/	.	.	.	.	.
=15-	=15-	=15-	=15-	=15-	=15-	=15-	=15-	=15-	=15-
!LO:LB:g=original	!	!	!	!	!	!	!	!	!
!LO:SIC:v:l:s=-he-	!	!	!	!	!	!	!	!	!
2F/	.	1c	.	2A/	.	.	.	2r	.
.	.	.	.	.	.	4d\	-he-	.	.
*	*	*	*	*	*	*	*	*	*ij
2C/	-men-	.	.	2G/	-men-	2e\	.	2.cc\	Spi-
*	*	*Xlig	*	*	*	*	*	*	*
2.F/	-tis	1c	-men-	1A	-tis	1f	-men-	.	.
.	.	.	.	.	.	.	.	4cc\	-ri-
.	.	.	.	.	.	.	.	2cc\	-tus
4G\	.	.	.	.	.	.	.	.	.
=16-	=16-	=16-	=16-	=16-	=16-	=16-	=16-	=16-	=16-
!	!	!LO:TX:t=P:problem:kreska pseudotaktowa	!	!	!	!	!	!	!
1A	U-	1c,<	-tus	2rA	.	1e	-tis	2cc\	ve-
.	.	.	.	2c\	U-	.	.	2cc\	-he-
*	*	*lig	*	*	*	*	*	*	*
!	!	!LO:SIC:v:l:s=U-	!	!	!	!	!	!	!
1D	-bi	1A	V-	2d\	-bi	2re	.	1ff	-men-
.	.	.	.	2d\	e-	1a\	U-	.	.
=17-	=17-	=17-	=17-	=17-	=17-	=17-	=17-	=17-	=17-
2r	.	1c	.	2e\	-rant	.	.	2ee\	.
*lig	*	*	*	*	*	*	*	*	*
1A	U-	.	.	4A/	e-	2a\	-bi	2cc\	-tis
*	*	*	*	*	*	*	*	*	*Xij
.	.	.	.	4B/	.	.	.	.	.
*	*	*Xlig	*	*	*	*	*	*	*
.	.	1c	-bi	4c\	.	2a\	e-	1ee	U-
.	.	.	.	4d\	.	.	.	.	.
1c\	.	.	.	4e\	.	2.g\	.	.	.
.	.	.	.	4f\	.	.	.	.	.
*Xlig	*	*	*	*	*	*	*	*	*
=18-	=18-	=18-	=18-	=18-	=18-	=18-	=18-	=18-	=18-
*	*	*lig	*	*	*	*	*	*	*
.	.	1d	e-	1g	.	.	.	1dd	-bi
.	.	.	.	.	.	4f\	.	.	.
2B\	-bi	.	.	.	.	2d\	-rant	.	.
!	!	!	!	!	!	!LO:LB:g=original	!	!	!
1A	e-	1e	.	1c	-rant	2.a\	Se-	2cc\	e-
.	.	.	.	.	.	.	.	1a/	.
.	.	.	.	.	.	4g\	.	.	.
*	*	*Xlig	*	*	*	*	*	*	*
=19-	=19-	=19-	=19-	=19-	=19-	=19-	=19-	=19-	=19-
2D/	-rant	1d	.	2r	.	2f\	.	.	.
2G\	.	.	.	2d\	Se-	2g\	.	2.b/	.
2E/	Se-	1c	.	2e\	.	2g\	-den-	.	.
.	.	.	.	.	.	.	.	4g/	.
2C/	-den-	.	.	2.g\	-den-	2g\	-tes	1cc\	.
=20-	=20-	=20-	=20-	=20-	=20-	=20-	=20-	=20-	=20-
*	*	*lig	*	*	*	*	*	*	*
1G	.	1d	-rant	.	.	2re	.	.	.
.	.	.	.	4f\	.	.	.	.	.
!	!	!	!	!LO:LB:g=original	!	!	!	!	!
.	.	.	.	2d\	-tes	1g	U-	2b/	-rant
!	!	!LO:TX:t=P:problem:kreska pseudotaktowa	!	!	!	!	!	!	!
1C	-tes	1c	.	4e\	Se-	.	.	2.cc\	Se-
.	.	.	.	4d\	.	.	.	.	.
.	.	.	.	4c\	.	1e\	-bi	.	.
.	.	.	.	4B\	.	.	.	4dd\	.
*	*	*Xlig	*	*	*	*	*	*	*
=21-	=21-	=21-	=21-	=21-	=21-	=21-	=21-	=21-	=21-
!	!	!LO:LB:g=original	!	!	!	!	!	!	!
2rD	.	1c	Se-	2A/	.	.	.	2ee\	.
*	*ij	*	*	*	*	*	*	*	*
1F	U-	.	.	2F/	-den-	2.a\	e-	2ff\	-den-
!	!	!	!	!	!	!	!	!LO:LB:g=original	!
.	.	1A	-den-	1c	-tes	.	.	2cc\	-tes
.	.	.	.	.	.	4g\	.	.	.
2F/	-bi	.	.	.	.	4a\	.	1ff\	.
.	.	.	.	.	.	4f\	.	.	.
=22-	=22-	=22-	=22-	=22-	=22-	=22-	=22-	=22-	=22-
*	*	*lig	*	*	*	*	*	*	*
1C	e-	1c	.	2rA	.	1g	.	.	.
.	.	.	.	2G/	U-	.	.	2ee\	.
*	*	*	*	*	*	*	*	*	*ij
2.D/	.	1A	.	1d	-bi	2f\	-rant	2.dd\	U-
.	.	.	.	.	.	1a\	Se-	.	.
4E/	.	.	.	.	.	.	.	4cc\	-bi
*	*	*Xlig	*	*	*	*	*	*	*
=23-	=23-	=23-	=23-	=23-	=23-	=23-	=23-	=23-	=23-
*	*	*lig	*	*	*	*	*	*	*
1F	-rant	1A	-tes	2c/	e-	.	.	4a/	e-
.	.	.	.	.	.	.	.	4b/	.
.	.	.	.	2A/	-rant	4g\	.	2.cc\	.
.	.	.	.	.	.	4f\	.	.	.
!	!	!LO:TX:t=P:problem:kreska pseudotaktowa	!	!	!	!	!	!	!
2C/	Se-	1G	.	1c	ſe-	4e\	-den-	.	.
.	.	.	.	.	.	4f\	.	4b\	-rant
2E/	.	.	.	.	.	4g\	.	1g/	Se-
.	.	.	.	.	.	4e\	.	.	.
*	*	*Xlig	*	*	*	*	*	*	*
=24-	=24-	=24-	=24-	=24-	=24-	=24-	=24-	=24-	=24-
1D	-den-	1A	al-	1d	-den-	2f\	.	.	.
.	.	.	.	.	.	2d\	-tes	2f/	-den-
*	*	*lig	*	*	*	*	*	*	*
1C	-tes	1c	-le-	2G/	-tes	4e\	Al-	1g	-tes
*	*Xij	*	*	*	*	*	*	*	*Xij
.	.	.	.	.	.	4f\	.	.	.
.	.	.	.	1c/	Al-	4g\	.	.	.
.	.	.	.	.	.	4e\	.	.	.
=25-	=25-	=25-	=25-	=25-	=25-	=25-	=25-	=25-	=25-
1F	al-	1A	.	.	.	2.f\	-le-	2rg	.
.	.	.	.	2c/	-le-	.	.	1cc	Al-
.	.	.	.	.	.	4g\	.	.	.
*	*	*Xlig	*	*	*	*	*	*	*
*	*	*lig	*	*	*	*	*	*	*
2F/	-le-	1c	.	2A/	.	2a\	.	.	.
!	!	!	!	!	!	!LO:LB:g=original	!	!	!
4C/	-lu-	.	.	1c/	-lu-	2.g\	.	1ee\	.
4D/	.	.	.	.	.	.	.	.	.
=26-	=26-	=26-	=26-	=26-	=26-	=26-	=26-	=26-	=26-
4E/	.	1G	.	.	.	.	.	.	.
4F/	.	.	.	.	.	4f\	.	.	.
2G\	.	.	.	2B/	.	2d\	.	2dd\	-le-
*	*	*Xlig	*	*	*	*	*	*	*
*	*	*lig	*	*	*	*	*	*	*
2C/	-ia	1G	-lu-	2c/	.	4e\	.	2cc\	-lu-
.	.	.	.	.	.	4f\	.	.	.
2E/	al-	.	.	2G/	-ia	1g\	.	2b\	-ia
=27-	=27-	=27-	=27-	=27-	=27-	=27-	=27-	=27-	=27-
*	*	*	*	*	*	*	*	*	*ij
1D	-le-	1A	.	2rA	.	.	.	2.dd\	Al-
.	.	.	.	1d	et	2f\	-lu-	.	.
.	.	.	.	.	.	.	.	4cc\	.
*	*	*Xlig	*	*	*	*	*	*	*
1G	-lu-	1G	.	.	.	1g	-ia	4b/	.
.	.	.	.	.	.	.	.	4a/	-le-
.	.	.	.	2d\	re-	.	.	2b/	-lu-
=28-	=28-	=28-	=28-	=28-	=28-	=28-	=28-	=28-	=28-
!LO:LB:g=original	!	!LO:TX:t=P:problem:kreska pseudotaktowa	!	!	!	!	!	!	!
1C	-ia	1G,<	-ia	1e	-ple-	2re	.	2g/	-ia
.	.	.	.	.	.	1g	et	1cc	Al-
1rF	.	1G	et	1d	-ti	.	.	.	.
.	.	.	.	.	.	2g\	re-	4b/	-le-
.	.	.	.	.	.	.	.	4a/	-lu-
=29-	=29-	=29-	=29-	=29-	=29-	=29-	=29-	=29-	=29-
1.C	et	1G	re-	2c\	ſunt	2.e\	-ple-	2g/	-ia
*	*	*	*	*	*	*	*	*	*Xij
.	.	.	.	2.e\	o-	.	.	1cc	et
.	.	.	.	.	.	4f\	-ti	.	.
*	*	*lig	*	*	*	*	*	*	*
.	.	1c	-ple-	.	.	1g	ſunt	.	.
.	.	.	.	4d\	.	.	.	.	.
2C/	re-	.	.	1c/	.	.	.	2cc\	re-
=30-	=30-	=30-	=30-	=30-	=30-	=30-	=30-	=30-	=30-
2F/	-ple-	1d	.	.	.	0ra	.	2a/	-ple-
2G\	-ti	.	.	2B/	.	.	.	2b/	-ti
*	*	*Xlig	*	*	*	*	*	*	*
!	!	!	!	!LO:LB:g=original	!	!	!	!LO:LB:g=original	!
2C/	Sunt	1e	.	1c	.	.	.	2g/	ſunt
2c\	.	.	.	.	.	.	.	2g/	o-
=31-	=31-	=31-	=31-	=31-	=31-	=31-	=31-	=31-	=31-
!	!	!LO:TX:t=P:problem:kreska pseudotaktowa	!	!	!	!	!	!	!
2B\	o-	1d,<	-ti	1G	-mnes	2re	.	1b	.
2G\	-mnes	.	.	.	.	2g\	O-	.	.
!	!	!LO:TX:t=P:problem:kreska pseudotaktowa	!	!	!	!	!	!	!
!	!	!	!	!LO:TX:a:t=2	!	!	!	!	!
2.B-X\	Spi-	1d	Sunt	0rF	.	2f\	-mnes	2.dd\	.
.	.	.	.	.	.	2d\	ſpi-	.	.
4A\	.	.	.	.	.	.	.	4cc\	.
=32-	=32-	=32-	=32-	=32-	=32-	=32-	=32-	=32-	=32-
2G\	-ri-	1d	o-	.	.	2g\	-ri-	2b/	.
4F\	-tu	.	.	.	.	2g\	-tu	4a/	.
4E\	.	.	.	.	.	.	.	4g/	.
!	!	!LO:TX:t=P:problem:kreska pseudotaktowa	!	!	!	!	!	!	!
2D/	San-	1d,<	-mnes	2r	.	4f\	San-	2a/	.
.	.	.	.	.	.	4e\	.	.	.
2G\	.	.	.	2G/	Spi-	2d\	.	2b/	.
.	.	.	.	.	.	.	.	.	.
=33-	=33-	=33-	=33-	=33-	=33-	=33-	=33-	=33-	=33-
2C/	-cto	1e	Spi-	2.c/	-ri-	4c\	.	2cc/	-mnes
.	.	.	.	.	.	4d\	.	.	.
1c	Spi-	.	.	.	.	4e\	.	4g/	Spi-
.	.	.	.	4B/	.	4f\	.	4a/	.
.	.	1d	-ri-	4G/	.	2g\	.	4b\	-ri-
.	.	.	.	4A/	.	.	.	4cc\	.
2Bny\	-ri-	.	.	4B/	.	2d\	-cto	4dd\	.
.	.	.	.	4G/	.	.	.	4b\	.
=34-	=34-	=34-	=34-	=34-	=34-	=34-	=34-	=34-	=34-
!	!	!LO:TX:t=P:problem:kreska pseudotaktowa	!	!	!	!	!	!	!
1A	-tu	1c	-tu	4A/	.	2.e\	Spi-	4cc\	-tu
.	.	.	.	4B/	.	.	.	4dd\	.
.	.	.	.	4c/	.	.	.	2.ee\	San-
.	.	.	.	4A/	.	4f\	.	.	.
!	!	!	!	!	!	!LO:LB:g=original	!	!	!
2G\	San-	1d	San-	2B/	-tu	2g\	.	.	.
.	.	.	.	.	.	.	.	4dd\	.
2D/	.	.	.	2.A/	San-	2.a\	-ri-	1dd\	.
=35-	=35-	=35-	=35-	=35-	=35-	=35-	=35-	=35-	=35-
!	!	!LO:TX:t=P:problem:kreska pseudotaktowa	!	!	!	!	!	!	!
!	!	!LO:LB:g=original	!	!	!	!	!	!	!
1A,<<	-cto	1e	-cto	.	.	.	.	.	.
.	.	.	.	4B/	.	4g\	.	.	.
.	.	.	.	2c/	.	2e\	-tu	2cc\	.
1D	lo-	1d	lo-	0A	-cto	2.f\	San-	2dd\	-cto
.	.	.	.	.	.	.	.	2.a/	lo-
.	.	.	.	.	.	4g\	.	.	.
=36-	=36-	=36-	=36-	=36-	=36-	=36-	=36-	=36-	=36-
*lig	*	*lig	*	*	*	*	*	*	*
!LO:SIC:v:l:s=-quen-	!	!	!	!	!	!	!	!	!
1F	-qven-	1c	-quen-	.	.	2a\	.	.	.
.	.	.	.	.	.	.	.	4b/	.
.	.	.	.	.	.	2a\	-cto	4cc/	-quen-
.	.	.	.	.	.	.	.	4a/	.
1G	.	1B	.	2rA	.	2.g\	lo-	1b	-tes
.	.	.	.	1G	lo-	.	.	.	.
.	.	.	.	.	.	4f\	.	.	.
*Xlig	*	*Xlig	*	*	*	*	*	*	*
=37-	=37-	=37-	=37-	=37-	=37-	=37-	=37-	=37-	=37-
2C/	-tes	1c	.	.	.	4e\	.	1g	.
.	.	.	.	.	.	4d\	.	.	.
2E/	ma-	.	.	2G/	-quen-	1g	.	.	.
*	*	*lig	*	*	*	*	*	*	*
2D/	-gna-	1A	-tes	1d	-tes	.	.	1rb	.
2D/	-li-	.	.	.	.	2f\	-quen-	.	.
=38-	=38-	=38-	=38-	=38-	=38-	=38-	=38-	=38-	=38-
!	!	!LO:TX:t=P:problem:kreska pseudotaktowa	!	!	!	!	!	!	!
2E,<</	-a	1G,<	.	2B/	ma-	0.g	-tes	2rg	.
4C/	de-	.	.	1e\	-gna-	.	.	2cc\	lo-
4D/	.	.	.	.	.	.	.	.	.
*	*	*Xlig	*	*	*	*	*	*	*
!	!	!	!	!	!	!	!	!LO:LB:g=original	!
4E/	.	1G	Ma-	.	-a	.	.	2cc\	-quen-
4F/	.	.	.	.	.	.	.	.	.
2G\	-i	.	.	2d\	-li-	.	.	2b\	-tes
=39-	=39-	=39-	=39-	=39-	=39-	=39-	=39-	=39-	=39-
*	*	*lig	*	*	*	*	*	*	*
2E/	ma-	1c	-gna-	1e	-a	.	.	1cc	Ma-
2C/	.	.	.	.	.	.	.	.	.
!LO:LB:g=original	!	!	!	!	!	!	!	!	!
1G	-gna-	1B	.	2d\	Ma-	1rg	.	1dd	-gna-
.	.	.	.	1g	-gna-	.	.	.	.
*	*	*Xlig	*	*	*	*	*	*	*
=40-	=40-	=40-	=40-	=40-	=40-	=40-	=40-	=40-	=40-
1C	-li-	1c	.	.	.	2re	.	2ee\	-li-
.	.	.	.	2e\	-li-	2g\	Ma-	2ee\	-a
*	*	*lig	*	*	*	*	*	*	*
!	!	!	!	!LO:LB:g=original	!	!	!	!	!
1D	-a	1A	-li-	2f\	-a	2g\	-gna-	2.dd\	De-
.	.	.	.	1d	De-	2f\	-li-	.	.
.	.	.	.	.	.	.	.	4cc\	.
=41-	=41-	=41-	=41-	=41-	=41-	=41-	=41-	=41-	=41-
*lig	*	*	*	*	*	*	*	*	*
1G	De-	1G	.	.	.	1g	-a	4b/	.
.	.	.	.	.	.	.	.	4a/	.
.	.	.	.	2d\	-i	.	.	2.b/	.
*col	*	*Xlig	*	*	*	*	*	*	*
!	!	!LO:TX:t=P:problem:kreska pseudotaktowa	!	!	!	!	!	!	!
2.C/	.	1G	-a	2c\	Al-	2.e\	De-	.	.
.	.	.	.	.	.	.	.	4a/	.
.	.	.	.	2.e\	-le-	.	.	4g/	.
*Xlig	*	*	*	*	*	*	*	*	*
4D/	.	.	.	.	.	4f\	.	4f/	.
*Xcol	*	*	*	*	*	*	*	*	*
=42-	=42-	=42-	=42-	=42-	=42-	=42-	=42-	=42-	=42-
!	!	!LO:TX:t=P:problem:kreska pseudotaktowa	!	!	!	!	!	!	!
1E	.	1G	De-	.	.	2g\	-i	4e/	.
.	.	.	.	4d\	.	.	.	4f/	.
.	.	.	.	4B/	-lu-	2e\	.	1g	.
.	.	.	.	4c/	.	.	.	.	.
*	*	*lig	*	*	*	*	*	*	*
2D/	-i	1A	-i	1d	-ia	4f\	De-	.	.
.	.	.	.	.	.	4e\	.	.	.
2D/	al-	.	.	.	.	4d\	.	2f/	.
.	.	.	.	.	.	4c\	.	.	.
=43-	=43-	=43-	=43-	=43-	=43-	=43-	=43-	=43-	=43-
!	!	!LO:TX:t=P:problem:kreska pseudotaktowa	!	!	!	!	!	!	!
2E/	-le-	1G	.	1r	.	4B\	.	2g/	-i
.	.	.	.	.	.	4G/	.	.	.
!	!	!	!	!	!	!LO:LB:g=original	!	!	!
4C/	-lu-	.	.	.	.	1g	-i	2cc\	Al-
4D/	.	.	.	.	.	.	.	.	.
*	*	*Xlig	*	*	*	*	*	*	*
4E/	.	1G	al-	2r	.	.	.	2cc\	-le-
4F/	.	.	.	.	.	.	.	.	.
2G\	.	.	.	2d\	al-	2g\	.	2b/	-lu-
=44-	=44-	=44-	=44-	=44-	=44-	=44-	=44-	=44-	=44-
2D/	-ia	1A	-le-	2d\	-le-	1.f	Al-	1a	-ia
*	*ij	*	*	*	*	*	*	*	*
2.F/	al-	.	.	2.A/	.	.	.	.	.
.	.	1c	-lu-	.	.	.	.	2rg	.
4E/	.	.	.	4B/	.	.	.	.	.
2C/	-le-	.	.	2c/	-lu-	2e\	-le-	2g/	Al-
=45-	=45-	=45-	=45-	=45-	=45-	=45-	=45-	=45-	=45-
*	*	*lig	*	*	*	*	*	*	*
2F/	-lu-	1c	.	1A	-ia	1f	-lu-	2a/	-le-
2A\	-ia	.	.	.	.	.	.	1cc	.
1G	al-	1d	.	2rA	.	2.g\	-ia	.	.
*	*	*	*	*	*ij	*	*	*	*
.	.	.	.	1G/	al-	.	.	2b/	.
.	.	.	.	.	.	4f\	.	.	.
*	*	*Xlig	*	*	*	*	*	*	*
=46-	=46-	=46-	=46-	=46-	=46-	=46-	=46-	=46-	=46-
2C/	-le-	1c	.	.	.	4e\	.	2a/	.
.	.	.	.	.	.	4f\	.	.	.
2E/	-lu-	.	.	2G/	-le-	4g\	.	1g	.
.	.	.	.	.	.	4e\	.	.	.
!	!	!LO:TX:t=P:problem:kreska pseudotaktowa	!	!	!	!	!	!	!
1D	-ia	1A	-ia	1d	-lu-	4f\	.	.	.
.	.	.	.	.	.	4e\	.	.	.
.	.	.	.	.	.	4d\	.	2f/	-lu-
.	.	.	.	.	.	4c\	.	.	.
=47-	=47-	=47-	=47-	=47-	=47-	=47-	=47-	=47-	=47-
*	*	*	*ij	*	*	*	*	*	*
!	!	!	!	!	!	!	!	!LO:LB:g=original	!
2rD	.	1G	al-	2d\	-ia	2B/	.	1g	-ia
*	*	*	*	*	*Xij	*	*	*	*
1.C	al-	.	.	1G	al-	1e	Al-	.	.
*	*	*lig	*	*	*	*	*	*	*
.	.	1c	-le-	.	.	.	.	2rg	.
.	.	.	.	2.c/	.	2e\	-le-	2g/	Al-
=48-	=48-	=48-	=48-	=48-	=48-	=48-	=48-	=48-	=48-
1F	.	1A	.	.	.	1f	-lu-	2a/	.
.	.	.	.	4B/	.	.	.	.	.
.	.	.	.	2A/	-le-	.	.	2.cc\	-le-
*	*	*Xlig	*	*	*	*	*	*	*
*	*	*lig	*	*	*	*	*	*	*
2.C/	.	1c	.	2G/	.	1.e	-ia	.	.
.	.	.	.	.	.	.	.	4b/	.
.	.	.	.	1c/	-lu-	.	.	2.g/	.
4D/	.	.	.	.	.	.	.	.	.
=49-	=49-	=49-	=49-	=49-	=49-	=49-	=49-	=49-	=49-
4E/	.	1G	.	.	.	.	.	.	.
4F/	.	.	.	.	.	.	.	4a/	.
2G\	.	.	.	2B/	-ia	2d\	.	2.b/	.
*	*	*Xlig	*	*	*	*	*	*	*
*	*	*lig	*	*	*	*	*ij	*	*
2C/	.	1G	-lu-	1c	.	2e\	Al-	.	.
.	.	.	.	.	.	.	.	4a/	.
2E/	-le-	.	.	.	.	2c/	-le-	1g/	.
=50-	=50-	=50-	=50-	=50-	=50-	=50-	=50-	=50-	=50-
1D	-lu-	1A	.	2r	.	1d	-lu-	.	.
*	*	*	*	*	*ij	*	*	*	*
.	.	.	.	1d	al-	.	.	2f/	lu-
*	*	*Xlig	*	*	*	*	*	*	*
!	!	!LO:LB:g=original	!	!	!	!	!	!	!
2G\	-ia	1G	.	.	.	2B/	-ia	1%5g	-ia
1C/	al-	.	.	1e\	.	2G/	Al-	.	.
=51-	=51-	=51-	=51-	=51-	=51-	=51-	=51-	=51-	=51-
.	.	00G;;	-ia	.	.	2c\	-le-	.	.
*	*	*	*Xij	*	*	*	*	*	*
2BB/	-le-	.	.	2d\	-le-	2d\	.	.	.
!	!	!	!	!LO:LB:g=original	!	!	!	!	!
1C	-lu-	.	.	1.c	-lu-	1e	-lu-	.	.
=52-	=52-	=52-	=52-	=52-	=52-	=52-	=52-	=52-	=52-
0GG;;	-ia	.	.	.	.	0d	-ia	.	.
*	*Xij	*	*	*	*	*	*Xij	*	*
.	.	.	.	4B/	.	.	.	.	.
.	.	.	.	4A/	.	.	.	.	.
.	.	.	.	1B	-ia	.	.	.	.
*	*	*	*	*	*Xij	*	*	*	*
!LO:PB:g=original	!	!LO:PB:g=original	!	!LO:PB:g=original	!	!LO:PB:g=original	!	!LO:PB:g=original	!
=-	=-	==	==	=-	=-	=-	=-	=-	=-
*-	*-	*-	*-	*-	*-	*-	*-	*-	*-
!!!system-decoration: [(s1,s2,s3,s4,s5)]
!!!RDF**kern: < = below
!!!ENC:Kamil Watkowski
!!!END:2021-03-18
!!!ENC: Marta Chmielewska
!!!END: 2021-04-01
